X: 3
T:Club Cil
M:6/8
L:1/8
R:Jig
K:G
B2B BAB|dBA G2B|d2d d2B|ded B2A|BcB BAB|dBA G2B|ded cBA|1G3 G2A :||2G3 G
Bd||
g2g f2f|e2e edB|d3 d2B|ded B2d|g2g f2f|efe edB|1ded cBA|G3 GBd :||2dge d
ge|dge dBA||
% Output from ABC2Win  Version 2.1 h on 14/12/99
